X:228
M:4/4
L:1/4
K:Bb
G G F B | A/G/ A G2 | G B c3/2 B/ | c d B2 | B c d B | c B/A/ G2 | !sintro!G G F B | A/G/ A G2 !eintro!|]
